!!!COM: Palestrina, Giovanni Perluigi da
!!!OPR: Missa Octavi toni
!!!OMD: Credo
!!!OTL: First Section
**kern	**kern	**kern	**kern	**kern	**kern
*Ibass	*Itenor	*Itenor	*Icalto	*Icant	*Icant
!Bassus	!Tenor 2	!Tenor 1	!Altus	!Cantus 2	!Cantus 1
*clefF4	*clefGv2	*clefGv2	*clefG2	*clefG2	*clefG2
*k[]	*k[]	*k[]	*k[]	*k[]	*k[]
*G:mix	*G:mix	*G:mix	*G:mix	*G:mix	*G:mix
*M4/2	*M4/2	*M4/2	*M4/2	*M4/2	*M4/2
=1	=1	=1	=1	=1	=1
1r	0d	1r	1r	0r	0r
[1G	.	[1d	[1g	.	.
=2	=2	=2	=2	=2	=2
1G]	1.B	1d]	1g]	0r	0r
1E	.	1e	1g	.	.
.	[2c	.	.	.	.
=3	=3	=3	=3	=3	=3
1F	4c]	1A	1a	0r	0r
.	4B	.	.	.	.
.	4c	.	.	.	.
.	4d	.	.	.	.
2E	2e	2B	2g	.	.
2D	2A	[2d	2f#	.	.
=4	=4	=4	=4	=4	=4
0G	2B	2d]	1g	0r	0r
.	1c	2e	.	.	.
.	.	[1d	1g	.	.
.	2B	.	.	.	.
=5	=5	=5	=5	=5	=5
1G	1B	2d]	2r	1g	2r
.	.	2G	2d	.	2b
1r	1r	2G	2d	2g	2b
.	.	2G	2d	2g	2b
=6	=6	=6	=6	=6	=6
0r	0r	1A	1c	1e	1cc
.	.	2A	2A	1e	2cc
.	.	2G	2B	.	2b
=7	=7	=7	=7	=7	=7
0r	0r	1F	2.c	1f	0a
.	.	.	8B	.	.
.	.	.	8A	.	.
.	.	4D	1d	1f	.
.	.	4E	.	.	.
.	.	4F	.	.	.
.	.	4G	.	.	.
=8	=8	=8	=8	=8	=8
2r	2r	0A	2c#	2e	2a
1AA	1A	.	1c#	1e	1a
2AA	2E	.	2c#	2e	2a
=9	=9	=9	=9	=9	=9
2D	2F	0r	2d	2d	2a
2GG	2G	.	2B	2d	2g
1D	4A	.	1A	1d	4f
.	4G	.	.	.	4g
.	2F	.	.	.	4a
.	.	.	.	.	4b
=10	=10	=10	=10	=10	=10
1.C	2.E	0r	1.e	1.g	2cc
.	.	.	.	.	1cc
.	4F	.	.	.	.
.	2G	.	.	.	.
2C	2G	.	2e	2g	2cc
=11	=11	=11	=11	=11	=11
2GG	2G	2r	1d	0g	2b
1G	1B	1d	.	.	1b
.	.	.	2.g	.	.
2C	2G	2e	.	.	2cc
.	.	.	4g	.	.
=12	=12	=12	=12	=12	=12
2F	2A	2c	2f	0r	2a
2G	2B	2B	2d	.	2g
2C	2c	2A	2e	.	2g
2D	2A	2A	2d	.	2f#
=13	=13	=13	=13	=13	=13
0GG	0B	1G	1d	0r	2g
.	.	.	.	.	1dd
.	.	2r	1d	.	.
.	.	[2G	.	.	2b
=14	=14	=14	=14	=14	=14
0r	0r	2G]	2B	1.g	2dd
.	.	2E	2e	.	2.cc
.	.	1G	1d	.	.
.	.	.	.	.	8b
.	.	.	.	.	8a
.	.	.	.	2g	2b
=15	=15	=15	=15	=15	=15
0r	0r	1F	1.f	2a	1.cc
.	.	.	.	2a	.
.	.	2.A	.	2a	.
.	.	.	2e	2a	2cc
.	.	4A	.	.	.
=16	=16	=16	=16	=16	=16
0r	0r	2E	2e	1g	2b
.	.	1G	1d	.	1b
.	.	.	.	2g	.
.	.	2C	2e	2g	2cc
=17	=17	=17	=17	=17	=17
0r	0r	2.D	1d	0f	0a
.	.	4E	.	.	.
.	.	1F	1c	.	.
=18	=18	=18	=18	=18	=18
2r	2r	1C	1c	2e	2g
2.C	2.c	.	.	2e	2.g
.	.	2r	1r	2e	.
4C	4c	.	.	.	4g
2C	2c	[2G	.	2e	2g
=19	=19	=19	=19	=19	=19
1GG	1B	4G]	0r	1d	1g
.	.	4G	.	.	.
.	.	2G	.	.	.
1D	2A	1F#	.	1d	1a
.	2D	.	.	.	.
=20	=20	=20	=20	=20	=20
1.C	2.E	2G	0r	1.g	2.cc
.	.	1c	.	.	.
.	4F	.	.	.	4dd
.	1G	.	.	.	2ee
2BB	.	2d	.	2g	2dd
=21	=21	=21	=21	=21	=21
2C	2E	2e	1r	2g	2cc
2C	2C	2e	.	2g	2cc
1GG	1G	2.d	2r	1g	1b
.	.	.	[2e	.	.
.	.	8c	.	.	.
.	.	8B	.	.	.
=22	=22	=22	=22	=22	=22
1.D	2r	1A	2e]	1.f#	0r
.	2A	.	2d	.	.
.	2A	1r	2.d	.	.
2D	[2B	.	.	2f#	.
.	.	.	4c	.	.
=23	=23	=23	=23	=23	=23
2E	4B]	0r	2B	2g	0r
.	4G	.	.	.	.
2C	1c	.	2e	2g	.
1G	.	.	1d	1g	.
.	4B	.	.	.	.
.	4A	.	.	.	.
=24	=24	=24	=24	=24	=24
0GG	1B	2r	2d	0g	2r
.	.	1G	2d	.	1b
.	1B	.	2d	.	.
.	.	2G	[2e	.	2b
=25	=25	=25	=25	=25	=25
0r	0r	2A	4e]	0r	2cc
.	.	.	4c	.	.
.	.	2F	1f	.	2a
.	.	1c	.	.	2g
.	.	.	4e	.	[2a
.	.	.	4d	.	.
=26	=26	=26	=26	=26	=26
1r	1r	2c	2e	0r	4a]
.	.	.	.	.	4g
.	.	2B	1d	.	1g
[1D	2r	1A	.	.	.
.	2A	.	2d	.	4f#
.	.	.	.	.	4e
=27	=27	=27	=27	=27	=27
2D]	2A	2r	1d	0r	2f#
2D	2.B	2d	.	.	2f#
2E	.	2B	1G	.	[1g
.	4G	.	.	.	.
2C	[2c	[2e	.	.	.
=28	=28	=28	=28	=28	=28
1G	4c]	4e]	0r	0r	1g]
.	8B	4d	.	.	.
.	8A	.	.	.	.
.	2B	2d	.	.	.
2F	2A	2d	.	.	1r
2E	2G	2c#	.	.	.
=29	=29	=29	=29	=29	=29
1D	1A	2d	2r	1f	0r
.	.	2A	2d	.	.
1r	2r	2B-	2d	2f	.
.	2d	2B-	2d	2f	.
=30	=30	=30	=30	=30	=30
0r	2d	1A	1e	1a	0r
.	2c#	.	.	.	.
.	1d	1D	1f#	1a	.
=31	=31	=31	=31	=31	=31
1G	1B	1d	2r	1g	1b
.	.	.	2g	.	.
2C	1r	2c	2e	2g	2cc
2C	.	2c	2e	2g	2cc
=32	=32	=32	=32	=32	=32
2F	0r	2A	2f	2a	2cc
2D	.	2A	2f	2a	2dd
1AA	.	1A	[1e	1a	2cc
.	.	.	.	.	[2a
=33	=33	=33	=33	=33	=33
0r	2r	1.E	1e]	1.b	2a]
.	1e	.	.	.	4g#
.	.	.	.	.	4f#
.	.	.	1r	.	2g#
.	2e	2E	.	2b	2g#
=34	=34	=34	=34	=34	=34
0r	2.e	0A	2r	0cc	0a
.	.	.	1e	.	.
.	4d	.	.	.	.
.	4c	.	.	.	.
.	4B	.	.	.	.
.	2A	.	2e	.	.
=35	=35	=35	=35	=35	=35
0E	1B	1E	1e	1b	0g#
.	2r	1B	1e	1b	.
.	2e	.	.	.	.
=36	=36	=36	=36	=36	=36
1A	2e	1c	2r	1a	2r
.	2e	.	2e	.	2a
1AA	2.c	1A	[1e	1a	2cc
.	.	.	.	.	2cc
.	4d	.	.	.	.
=37	=37	=37	=37	=37	=37
0E	4e	0B	2e]	0g#	1.b
.	4f	.	.	.	.
.	2.e	.	2B	.	.
.	.	.	1e	.	.
.	4d	.	.	.	.
.	2B	.	.	.	2e
=38	=38	=38	=38	=38	=38
0AA	1c#	0A	1e	[0a	2r
.	.	.	.	.	1e
.	2r	.	[1c#	.	.
.	[2A	.	.	.	2e
=39	=39	=39	=39	=39	=39
0r	2A]	2r	2c#]	0a]	1e
.	2A	1A	2c#	.	.
.	2D	.	2d	.	1f#
.	2D	2A	2d	.	.
=40	=40	=40	=40	=40	=40
0r	1G	2B	1d	0r	1g
.	.	2B	.	.	.
.	2.F	1c	1f	.	[1a
.	4E	.	.	.	.
=41	=41	=41	=41	=41	=41
0r	2D	2.d	1.f	0r	1a]
.	1d	.	.	.	.
.	.	8c	.	.	.
.	.	8B	.	.	.
.	.	1A	.	.	2r
.	2c	.	2e	.	[2a
=42	=42	=42	=42	=42	=42
0r	1d	0r	1f	0r	2a]
.	.	.	.	.	2b
.	2A	.	2e	.	2.cc
.	[2c	.	[2e	.	.
.	.	.	.	.	4g
=43	=43	=43	=43	=43	=43
0r	2c]	0r	2e]	0r	2a
.	2B	.	2d	.	2b
.	1A	.	2e	.	1cc
.	.	.	2f#	.	.
=44	=44	=44	=44	=44	=44
2r	1G	2r	2g	0r	0b
1G	.	1B	1d	.	.
.	2r	.	.	.	.
2G	[2G	2B	2d	.	.
=45	=45	=45	=45	=45	=45
2.E	2G]	2.B	2.e	0r	0r
.	2G	.	.	.	.
4E	.	4B	4e	.	.
2C	2.A	2c	2e	.	.
[2D	.	[2F	[2f	.	.
.	4A	.	.	.	.
=46	=46	=46	=46	=46	=46
4D]	1D	2F]	4f]	0r	0r
4C	.	.	4e	.	.
2BB-	.	2G	1d	.	.
1AA	2E	[1A	.	.	.
.	2E	.	2c#	.	.
=47	=47	=47	=47	=47	=47
0D	2D	1A]	2d	0r	2r
.	2d	.	2f	.	2a
.	2d	1r	2f	.	2a
.	2A	.	2f	.	2a
=48	=48	=48	=48	=48	=48
0r	2c	2r	0e	0r	0g
.	4B	2E	.	.	.
.	4A	.	.	.	.
.	2B	2E	.	.	.
.	[2c	2E	.	.	.
=49	=49	=49	=49	=49	=49
0r	2c]	1F	1c	0r	1.f
.	2A	.	.	.	.
.	1A	2D	2.d	.	.
.	.	2D	.	.	2f
.	.	.	4d	.	.
=50	=50	=50	=50	=50	=50
1AA	2r	0A	2c	1a	1e
.	2c	.	2A	.	.
2AA	2e	.	2c	2a	1r
2AA	2e	.	2c	2a	.
=51	=51	=51	=51	=51	=51
1C	1e	2r	1c	1g	0r
.	.	2E	.	.	.
2C	2c	2E	2e	2g	.
2C	2c	2E	2e	2g	.
=52	=52	=52	=52	=52	=52
0D	1A	1F	1d	0f	2r
.	.	.	.	.	2a
.	1A	2F	2d	.	2a
.	.	2D	2a	.	2a
=53	=53	=53	=53	=53	=53
1AA	2r	0A	1a	0e	1cc#
.	2e	.	.	.	.
2r	2e	.	2A	.	2cc#
2A	2A	.	2e	.	2cc#
=54	=54	=54	=54	=54	=54
4A	2r	0D	1d	0f	1dd
4G	.	.	.	.	.
4F	2A	.	.	.	.
4E	.	.	.	.	.
4D	2A	.	2.d	.	2dd
4C	.	.	.	.	.
4BB-	2D	.	.	.	2dd
4AA	.	.	4c	.	.
=55	=55	=55	=55	=55	=55
1GG	2D	2d	4B-	0g	4dd
.	.	.	4A	.	4cc
.	2.d	4d	2G	.	4b-
.	.	4c	.	.	4a
1GG	.	4B-	[1d	.	2g
.	4c	4A	.	.	.
.	2B-	2G	.	.	[2d
=56	=56	=56	=56	=56	=56
0D	2A	1A	1d]	1f#	2d]
.	2D	.	.	.	2.dd
.	1A	[1D	2.d	1f#	.
.	.	.	.	.	4cc
.	.	.	.	.	2a
.	.	.	4c	.	.
=57	=57	=57	=57	=57	=57
0GG	0G	2D]	2B	0g	2b
.	.	2C	2e	.	2.cc
.	.	1D	1d	.	.
.	.	.	.	.	8b
.	.	.	.	.	8a
.	.	.	.	.	2b
=58	=58	=58	=58	=58	=58
0C	0G	0E	0c	0g	0cc
=59	=59	=59	=59	=59	=59
1r	1r	1r	1r	1r	1r
1C	1G	1E	1e	1g	1cc
=60	=60	=60	=60	=60	=60
1C	1E	1.G	1e	1cc	1g
1GG	2G	.	1d	1b	1g
.	[2G	2D	.	.	.
=61	=61	=61	=61	=61	=61
1C	4G]	2E	2c	1cc	1g
.	4F	.	.	.	.
.	2E	2.G	2e	.	.
1GG	1D	.	1g	[1dd	1b-
.	.	4F	.	.	.
.	.	4D	.	.	.
.	.	4E	.	.	.
=62	=62	=62	=62	=62	=62
0AA	[0A	4F	2f	2dd]	[0a
.	.	4G	.	.	.
.	.	2.A	4e	4cc#	.
.	.	.	4d	4b	.
.	.	.	1e	1cc#	.
.	.	4G	.	.	.
.	.	2E	.	.	.
=63	=63	=63	=63	=63	=63
0D	1A]	1F#	0d	1dd	0a]
.	1A	1F#	.	1dd	.
=64	=64	=64	=64	=64	=64
1C	1c	1G	2r	1ee	1r
.	.	.	2g	.	.
1GG	1B	1G	1g	1dd	2r
.	.	.	.	.	2dd
=65	=65	=65	=65	=65	=65
4C	1c	4E	1g	1cc	1ee
4D	.	4F	.	.	.
4E	.	4G	.	.	.
4F	.	4A	.	.	.
1G	1r	4B	2.g	1b	1dd
.	.	4c	.	.	.
.	.	4d	.	.	.
.	.	4B	4f	.	.
=66	=66	=66	=66	=66	=66
2A	0r	2c	4e	1a	1cc
.	.	.	8d	.	.
.	.	.	8e	.	.
2F	.	2A	2f	.	.
1G	.	2B	1d	[1g	1b
.	.	2G	.	.	.
=67	=67	=67	=67	=67	=67
0D	0r	0A	[0d	2g]	0a
.	.	.	.	4f#	.
.	.	.	.	4e	.
.	.	.	.	1f#	.
=68	=68	=68	=68	=68	=68
1r	1r	0G	1d]	0g	1b
1C	1c	.	1e	.	[1g
=69	=69	=69	=69	=69	=69
1E	1B	0r	1e	0r	1g]
1F	1A	.	1c	.	1f
=70	=70	=70	=70	=70	=70
1C	2G	0r	1g	0r	1e
.	1c	.	.	.	.
[1G	.	.	2.g	.	[1d
.	4B	.	.	.	.
.	4A	.	8f	.	.
.	.	.	8e	.	.
=71	=71	=71	=71	=71	=71
1G]	1B	0r	2d	0r	2d]
.	.	.	1e	.	1g
1A	1c	.	.	.	.
.	.	.	2c	.	2f#
=72	=72	=72	=72	=72	=72
1G	1d	1r	1B	1r	1g
[1GG	1r	[1G	[1d	[1g	[1b-
=73	=73	=73	=73	=73	=73
1GG]	0D	1G]	1d]	1g]	1b-]
1D	.	1A	1d	1f	1a
=74	=74	=74	=74	=74	=74
1AA	1A	2A	2.c	1e	1a
.	.	1c	.	.	.
.	.	.	8B	.	.
.	.	.	8A	.	.
1C	1E	.	2G	1e	1g
.	.	[2G	2c	.	.
=75	=75	=75	=75	=75	=75
0GG	1G	4G]	2B	1d	0g
.	.	4A	.	.	.
.	.	4B	4G	.	.
.	.	4c	4A	.	.
.	[1D	2d	4B	[1g	.
.	.	.	4c	.	.
.	.	2G	[2d	.	.
=76	=76	=76	=76	=76	=76
0D	1D]	0A	2d]	2g]	0a
.	.	.	4c	4f#	.
.	.	.	4B	4e	.
.	1d	.	2A	1f#	.
.	.	.	[2d	.	.
=77	=77	=77	=77	=77	=77
[0GG	2.B	[0G	4d]	[0g	[0b
.	.	.	4c	.	.
.	.	.	4B	.	.
.	4c	.	4A	.	.
.	1d	.	2.B	.	.
.	.	.	4c	.	.
=78	=78	=78	=78	=78	=78
0GG]	0B	0G]	0d	0g]	0b]
*-	*-	*-	*-	*-	*-
!!!CDT: 1525/^1526/-1594/2/2
!!!OCY: Italia
!!!AGN: Mass (Tenor)
!!!AST: renaissance, vocal
!!!ASW: Hymn
!!!PWK: Masses, Book 11
!!!RNB: Cadence finals: A,C
!!!YOR: Le Opere Complete, v. 28, p. 114
!!!YOO: Rome, Italy: Fratelli Scalera
!!!END: 1992//
!!!EED: John Miller
!!!YEC: Copyright 2000, John Miller
!!!YEN: United States of America
!!!YEM: Rights to all derivative electronic formats reserved.
!!!YEM: Refer to licensing agreement for further details.
!!!YEM: This file must be accompanied by the licensing agreement.
!!!YEM: A copy of the licensing agreement may be found at http://www.music-cog.ohio-state.edu/HumdrumDatabases/Palestrina/license.txt
!!!EMD: converted to Humdrum by Bret Aarden
